X:1
T:Title
%%score ( 1 2 ) { ( 3 5 7 ) | ( 4 6 ) }
L:1/8
M:3/2
K:D
V:1 treble nm="Grand Piano, Piano"
V:2 treble 
V:3 bass nm="Grand Piano, Piano"
V:5 bass 
V:7 bass 
V:4 bass 
V:6 bass 
V:1
 z4 z4[Q:1/4=100] [A,D]4 | [DF]2 [CG]2 [DA]4 [Dd]4 | [Dc]2 [DB]2 [DA]4 B3 A | %3
w: 1.~Sing~|praise~ to~ God~ who~|reigns~ a bove,~ the~ *|
 [EG]2 [DF]2 [CE]4 F2 G2 | .D4 z4 z4 | [DF]2 [CG]2 [DA]4 [Dd]4 | [Dc]2 [DB]2 [DA]4 B3 A | %7
w: God~ of~ all~ cre *|a|God~ of~ power,~ the~|God~ of~ love,~ the~ *|
[M:2/4] [EG]2 [DF]2 |[M:4/4] [CE]4 F2 G2 |[M:6/4] E2- [CE]2 D2- D2 [Fd]4 | %10
w: God~ of~|our~ sal *|va * tion.~ * With~|
 [Fc]2 [=FB]2 [CA]2- [CA]2 [Dd]4 | [Ec]2 [EB]2 [EA]2- [EA]2 [CA]4 | D2 [CE]2 [DF]2- [DF]2 [A,D]4 | %13
w: heal ing~ balm~ * my~|soul~ is~ filled~ * and~|ev ery~ faith * less~|
 [DF]2 [D^G]2 [CA]2- [CA]2 [DA]4 | [DB]2 [DG]2 [CE]2- [CE]2 F2 G2 |[M:4/4] E2- [CE]2 D4 |] %16
w: mur mur~ stilled:~ * To~|God~ all~ praise~ * and~ *|glo * ry.~|
V:2
 x12 | x12 | z4 z4 ^D4 | z4 z4 D4 | E2- [CE]2 D4 [A,D]4 | x12 | z4 z4 ^D4 |[M:2/4] x4 | %8
[M:4/4] z4 D4 |[M:6/4] .D6 z6 | x12 | x12 | x12 | x12 | z6 z2 D4 |[M:4/4] D2 z2 z4 |] %16
V:3
 z4 z4 F,4 | A,2 A,2 F,4 A,4 | A,2 G,2 z2 =C,2 F,2 B,2 | B,2 A,2 z4 A,2 B,2 | A,4 z4 z4 | %5
 A,2 A,2 F,4 A,4 | A,2 G,2 z2 =C,2 F,2 B,2 |[M:2/4] B,2 A,2 |[M:4/4] z4 A,2 B,2 |[M:6/4] .A,6 z6 | %10
 A,2 ^G,2 F,2- F,2 F,4 | A,2 ^G,2 C2- C2 z2 =G,2 | A,2 G,2 A,2- A,2 z2 C,2 | B,2 .B,4 G,2 D2 =C2 | %14
 .B,6 z2 A,2 B,2 |[M:4/4] A,4 z4 |] %16
V:4
 z4 z4 D,4 | D,2 E,2 z4 F,,4 | G,,2 B,,2 .D,4 B,,4 | z4 A,4 z4 | z4 D,4 D,4 | D,2 E,2 z4 F,,4 | %6
 G,,2 B,,2 .D,4 B,,4 |[M:2/4] E,2 F,G, |[M:4/4] A,4 z4 |[M:6/4] z4 D,2- D,2 B,,4 | %10
 C,2 .C,4 z2 B,,4 | C,2 E,2 A,2- A,2 z2 z2 | F,2 E,2 D,2- D,2 .D,4 | B,,2 .E,4 z2 F,4 | %14
 z4 A,2- A,2 z2 z2 |[M:4/4] z4 D,4 |] %16
V:5
 x12 | x12 | z4 F,4 z4 | x12 | z2 z G, F,4 F,4 | x12 | z4 F,4 z4 |[M:2/4] x4 |[M:4/4] x8 | %9
[M:6/4] z2 z G, F,2- F,2 B,4 | x12 | z6 z2 A,4 | z6 z2 F,4 | z4 A,2- A,2 z2 z2 | x12 | %15
[M:4/4] z2 z G, F,4 |] %16
V:6
 x12 | x12 | x12 | E,2 F,G, z2 G,2 F,2 E,2 | x12 | x12 | x12 |[M:2/4] x4 |[M:4/4] z2 G,2 F,2 E,2 | %9
[M:6/4] x12 | x12 | x12 | x12 | x12 | G,2 .E,4 G,2 F,2 E,2 |[M:4/4] x8 |] %16
V:7
 x12 | x12 | x12 | x12 | z2 A,,2 z4 z4 | x12 | x12 |[M:2/4] x4 |[M:4/4] x8 |[M:6/4] z2 .A,,4 z6 | %10
 x12 | x12 | x12 | x12 | x12 |[M:4/4] z2 A,,2 z4 |] %16

